src/icons/file-node.svg

<?xml version="1.0" encoding="UTF-8" standalone="no"?>
<svg
   version="1.2"
   viewBox="0 0 16 16"
   width="16"
   height="16"
   id="svg1"
   sodipodi:docname="node-svg.svg"
   inkscape:version="1.4 (e7c3feb100, 2024-10-09)"
   xmlns:inkscape="http://www.inkscape.org/namespaces/inkscape"
   xmlns:sodipodi="http://sodipodi.sourceforge.net/DTD/sodipodi-0.dtd"
   xmlns="http://www.w3.org/2000/svg"
   xmlns:svg="http://www.w3.org/2000/svg">
  <defs
     id="defs1" />
  <sodipodi:namedview
     id="namedview1"
     pagecolor="#505050"
     bordercolor="#eeeeee"
     borderopacity="1"
     inkscape:showpageshadow="0"
     inkscape:pageopacity="0"
     inkscape:pagecheckerboard="0"
     inkscape:deskcolor="#505050"
     inkscape:zoom="36.8125"
     inkscape:cx="8.0135823"
     inkscape:cy="8.0135823"
     inkscape:window-width="1326"
     inkscape:window-height="755"
     inkscape:window-x="20"
     inkscape:window-y="52"
     inkscape:window-maximized="0"
     inkscape:current-layer="svg1" />
  <title
     id="title1">node-svg</title>
  <style
     id="style1">
		.s0 { fill: #8cc162 } 
		.s1 { fill: #000000 } 
	</style>
  <path
     id="path1"
     class="s0"
     d="M 8 1.3496094 C 7.8666667 1.3496094 7.7329427 1.3670573 7.5996094 1.4003906 C 7.2996094 1.4003906 7.0003906 1.6003906 6.4003906 1.9003906 L 3.5996094 3.5996094 C 2.9996094 3.8996094 2.7 4.1007812 2.5 4.3007812 C 2.3 4.5007813 2.166276 4.7333333 2.0996094 5 C 1.9996094 5.3 2 5.7007813 2 6.3007812 L 2 9.6992188 C 2 9.9254864 2.0024494 10.11627 2.0078125 10.291016 C 2.0387784 10.367331 2.0686435 10.438068 2.0996094 10.5 C 2.166276 10.633333 2.2670573 10.734115 2.4003906 10.800781 L 2.8007812 10.800781 C 3.0007813 10.800781 3.1674479 10.765885 3.3007812 10.699219 C 3.4341146 10.565885 3.5329427 10.366276 3.5996094 10.099609 C 3.7329427 9.8329427 3.8007812 9.4996094 3.8007812 9.0996094 L 3.8007812 6.1992188 C 3.8007812 5.5325521 4.066276 5.1992187 4.5996094 5.1992188 C 5.266276 5.1992187 5.5996094 5.5325521 5.5996094 6.1992188 L 5.5996094 9.1992188 C 5.5996094 9.9325521 5.4658854 10.500391 5.1992188 10.900391 C 4.9325521 11.367057 4.5992187 11.667448 4.1992188 11.800781 C 3.8706473 11.965067 3.4966624 12.060507 3.078125 12.089844 C 4.1924739 12.80147 6.4003906 14.099609 6.4003906 14.099609 C 7.0003906 14.399609 7.2996094 14.599609 7.5996094 14.599609 C 7.866276 14.666276 8.133724 14.666276 8.4003906 14.599609 C 8.7003906 14.599609 8.9996094 14.399609 9.5996094 14.099609 L 12.400391 12.400391 C 13.000391 12.100391 13.3 11.899219 13.5 11.699219 C 13.7 11.499219 13.833724 11.266667 13.900391 11 C 14.000391 10.7 14 10.299219 14 9.6992188 L 14 6.3007812 C 14 5.7007812 14.000391 5.3 13.900391 5 C 13.833724 4.7333333 13.7 4.5007812 13.5 4.3007812 C 13.3 4.1007813 13.000391 3.8996094 12.400391 3.5996094 L 9.5996094 1.9003906 C 8.9996094 1.6003906 8.7003906 1.4003906 8.4003906 1.4003906 C 8.2670573 1.3670573 8.1333333 1.3496094 8 1.3496094 z M 10.099609 5.0996094 C 10.499609 5.0996094 10.865885 5.1674479 11.199219 5.3007812 C 11.599219 5.3674479 11.932552 5.4992187 12.199219 5.6992188 L 12.599609 6.0996094 C 12.666276 6.2329427 12.699219 6.3996094 12.699219 6.5996094 C 12.699219 6.7996094 12.633333 6.966276 12.5 7.0996094 C 12.366667 7.2329427 12.2 7.3007812 12 7.3007812 C 11.8 7.3007812 11.600391 7.2329427 11.400391 7.0996094 C 11.267057 7.0329427 11.166276 6.9341146 11.099609 6.8007812 C 10.966276 6.6674479 10.832552 6.5666667 10.699219 6.5 C 10.499219 6.4333333 10.266667 6.4003906 10 6.4003906 C 9.8 6.4003906 9.6333333 6.4333333 9.5 6.5 L 9.0996094 6.6992188 C 9.0329427 6.7658854 9 6.8666667 9 7 C 9 7.2 9.133724 7.3666667 9.4003906 7.5 C 9.6003906 7.6333333 9.933724 7.7670573 10.400391 7.9003906 C 10.933724 8.033724 11.365885 8.1674479 11.699219 8.3007812 C 12.099219 8.5007813 12.399609 8.7333333 12.599609 9 C 12.799609 9.2666667 12.900391 9.6 12.900391 10 C 12.900391 10.4 12.799609 10.766276 12.599609 11.099609 C 12.332943 11.432943 11.966667 11.700391 11.5 11.900391 C 11.033333 12.033724 10.533333 12.099609 10 12.099609 C 9.4666667 12.099609 8.9996094 12.033724 8.5996094 11.900391 C 8.1996094 11.767057 7.866276 11.600391 7.5996094 11.400391 C 7.266276 11.133724 7.0996094 10.833333 7.0996094 10.5 C 7.0996094 10.366667 7.1325521 10.2 7.1992188 10 C 7.3325521 9.8666667 7.5341146 9.8007812 7.8007812 9.8007812 C 8.0007813 9.8007812 8.1674479 9.833724 8.3007812 9.9003906 L 8.6992188 10.300781 L 9.3007812 10.699219 C 9.5007812 10.765885 9.7333333 10.800781 10 10.800781 L 10.599609 10.800781 C 10.732943 10.734115 10.866667 10.633333 11 10.5 C 11.066667 10.366667 11.099609 10.232943 11.099609 10.099609 C 11.099609 9.8996094 10.965885 9.7329427 10.699219 9.5996094 C 10.499219 9.466276 10.165885 9.3674479 9.6992188 9.3007812 C 8.8325521 9.1007813 8.2007813 8.8003906 7.8007812 8.4003906 C 7.4007812 8.0003906 7.1992187 7.5333333 7.1992188 7 C 7.1992188 6.6 7.3329427 6.2666667 7.5996094 6 C 7.7996094 5.7333333 8.1329427 5.533724 8.5996094 5.4003906 C 9.066276 5.2003906 9.566276 5.0996094 10.099609 5.0996094 z " />
</svg>

<svg xmlns="http://www.w3.org/2000/svg" width="16" height="16" version="1.2"><path d="M8 1.35q-.2 0-.4.05c-.3 0-.6.2-1.2.5L3.6 3.6c-.6.3-.9.5-1.1.7q-.3.3-.4.7c-.1.3-.1.7-.1 1.3v3.4c0 .225.002.416.008.591q.044.115.092.209a.66.66 0 0 0 .3.3h.4q.3 0 .5-.1.2-.201.3-.6.2-.4.2-1V6.2q0-1 .8-1 1 0 1 1v3q0 1.1-.4 1.7-.4.7-1 .9-.494.246-1.122.29C4.192 12.8 6.4 14.1 6.4 14.1c.6.3.9.5 1.2.5q.4.099.8 0c.3 0 .6-.2 1.2-.5l2.8-1.7c.6-.3.9-.5 1.1-.7q.3-.3.4-.7c.1-.3.1-.7.1-1.3V6.3c0-.6 0-1-.1-1.3q-.1-.4-.4-.7c-.2-.2-.5-.4-1.1-.7L9.6 1.9c-.6-.3-.9-.5-1.2-.5a1.7 1.7 0 0 0-.4-.05m2.1 3.75q.6 0 1.1.2.6.1 1 .4l.4.4q.1.2.1.5t-.2.5a.68.68 0 0 1-.5.2q-.3 0-.6-.2a.65.65 0 0 1-.3-.3 1.6 1.6 0 0 0-.4-.3q-.3-.1-.7-.1-.3 0-.5.1l-.4.2Q9 6.8 9 7q0 .3.4.5.3.2 1 .4.8.2 1.3.4.6.3.9.7t.3 1-.3 1.1q-.4.5-1.1.8-.7.2-1.5.2t-1.4-.2-1-.5q-.5-.4-.5-.9 0-.2.1-.5.2-.2.6-.2.3 0 .5.1l.4.4.6.4q.3.1.7.1h.6q.2-.1.4-.3a.9.9 0 0 0 .1-.4q0-.3-.4-.5-.3-.2-1-.3-1.3-.3-1.9-.9T7.2 7q0-.6.4-1 .3-.4 1-.6.699-.3 1.5-.3" style="fill:#8cc162"/></svg>
